src/assets/svg/card.svg

<svg width="38" height="38" viewBox="0 0 38 38" fill="none" xmlns="http://www.w3.org/2000/svg">
<path d="M3.16602 13.4673H34.8327" stroke="url(#paint0_linear_1541_13129)" stroke-miterlimit="10" stroke-linecap="round" stroke-linejoin="round"/>
<path d="M9.5 26.1333H12.6667" stroke="url(#paint1_linear_1541_13129)" stroke-miterlimit="10" stroke-linecap="round" stroke-linejoin="round"/>
<path d="M16.626 26.1333H22.9593" stroke="url(#paint2_linear_1541_13129)" stroke-miterlimit="10" stroke-linecap="round" stroke-linejoin="round"/>
<path d="M10.196 5.5498H27.7868C33.4235 5.5498 34.8327 6.94314 34.8327 12.5006V25.4998C34.8327 31.0573 33.4235 32.4506 27.8027 32.4506H10.196C4.57518 32.4665 3.16602 31.0731 3.16602 25.5156V12.5006C3.16602 6.94314 4.57518 5.5498 10.196 5.5498Z" stroke="url(#paint3_linear_1541_13129)" stroke-linecap="round" stroke-linejoin="round"/>
<defs>
<linearGradient id="paint0_linear_1541_13129" x1="4.87838" y1="14.3808" x2="4.93671" y2="12.5412" gradientUnits="userSpaceOnUse">
<stop stop-color="#7AAFFF"/>
<stop offset="1" stop-color="#642DFF"/>
</linearGradient>
<linearGradient id="paint1_linear_1541_13129" x1="9.67124" y1="27.0468" x2="10.2018" y2="25.3736" gradientUnits="userSpaceOnUse">
<stop stop-color="#7AAFFF"/>
<stop offset="1" stop-color="#642DFF"/>
</linearGradient>
<linearGradient id="paint2_linear_1541_13129" x1="16.9684" y1="27.0468" x2="17.2532" y2="25.2506" gradientUnits="userSpaceOnUse">
<stop stop-color="#7AAFFF"/>
<stop offset="1" stop-color="#642DFF"/>
</linearGradient>
<linearGradient id="paint3_linear_1541_13129" x1="4.87838" y1="30.1235" x2="29.3359" y2="1.4505" gradientUnits="userSpaceOnUse">
<stop stop-color="#7AAFFF"/>
<stop offset="1" stop-color="#642DFF"/>
</linearGradient>
</defs>
</svg>

<svg xmlns="http://www.w3.org/2000/svg" width="38" height="38" fill="none"><path stroke="url(#a)" stroke-linecap="round" stroke-linejoin="round" stroke-miterlimit="10" d="M3.166 13.467h31.667"/><path stroke="url(#b)" stroke-linecap="round" stroke-linejoin="round" stroke-miterlimit="10" d="M9.5 26.133h3.167"/><path stroke="url(#c)" stroke-linecap="round" stroke-linejoin="round" stroke-miterlimit="10" d="M16.626 26.133h6.333"/><path stroke="url(#d)" stroke-linecap="round" stroke-linejoin="round" d="M10.196 5.55h17.59c5.637 0 7.047 1.393 7.047 6.95v13c0 5.557-1.41 6.95-7.03 6.95H10.196c-5.62.017-7.03-1.377-7.03-6.934V12.5c0-5.558 1.41-6.951 7.03-6.951Z"/><defs><linearGradient id="a" x1="4.878" x2="4.937" y1="14.381" y2="12.541" gradientUnits="userSpaceOnUse"><stop stop-color="#7AAFFF"/><stop offset="1" stop-color="#642DFF"/></linearGradient><linearGradient id="b" x1="9.671" x2="10.202" y1="27.047" y2="25.374" gradientUnits="userSpaceOnUse"><stop stop-color="#7AAFFF"/><stop offset="1" stop-color="#642DFF"/></linearGradient><linearGradient id="c" x1="16.968" x2="17.253" y1="27.047" y2="25.251" gradientUnits="userSpaceOnUse"><stop stop-color="#7AAFFF"/><stop offset="1" stop-color="#642DFF"/></linearGradient><linearGradient id="d" x1="4.878" x2="29.336" y1="30.123" y2="1.45" gradientUnits="userSpaceOnUse"><stop stop-color="#7AAFFF"/><stop offset="1" stop-color="#642DFF"/></linearGradient></defs></svg>
